static/img/common/ico-check.svg

<svg width="12" height="8" viewBox="0 0 12 8" fill="none" xmlns="http://www.w3.org/2000/svg">
<g clip-path="url(#clip0_840_26)">
<path d="M4.38 7.98996C4.26 7.98996 4.14 7.93996 4.05 7.85996L0.150002 4.12996C-0.0399981 3.94996 -0.0499981 3.63996 0.140002 3.44996C0.320002 3.25996 0.630002 3.24996 0.820002 3.43996L4.36 6.82996L10.5 0.14996C10.68 -0.0500398 10.98 -0.0600398 11.18 0.11996C11.38 0.29996 11.39 0.59996 11.21 0.79996L4.73 7.82996C4.64 7.91996 4.52 7.97996 4.39 7.97996C4.39 7.97996 4.38 7.97996 4.37 7.97996L4.38 7.98996Z" fill="currentColor"/>
</g>
<defs>
<clipPath id="clip0_840_26">
<rect width="11.34" height="7.99" fill="white"/>
</clipPath>
</defs>
</svg>

<svg xmlns="http://www.w3.org/2000/svg" width="12" height="8" fill="none" viewBox="0 0 12 8"><g clip-path="url(#a)"><path fill="currentColor" d="M4.38 7.99c-.12 0-.24-.05-.33-.13L.15 4.13a.477.477 0 0 1-.01-.68c.18-.19.49-.2.68-.01l3.54 3.39L10.5.15c.18-.2.48-.21.68-.03s.21.48.03.68L4.73 7.83c-.09.09-.21.15-.34.15h-.02z"/></g><defs><clipPath id="a"><path fill="#fff" d="M0 0h11.34v7.99H0z"/></clipPath></defs></svg>
